humanity-icon-theme/Humanity/devices/128/media-optical.svg

<?xml version="1.0" encoding="UTF-8" standalone="no"?>
<!-- Created with Inkscape (http://www.inkscape.org/) -->

<svg
   xmlns:svg="http://www.w3.org/2000/svg"
   xmlns="http://www.w3.org/2000/svg"
   xmlns:xlink="http://www.w3.org/1999/xlink"
   version="1.0"
   width="128"
   height="128"
   id="svg3367">
  <defs
     id="defs3369">
    <linearGradient
       id="linearGradient23419">
      <stop
         id="stop23421"
         style="stop-color:#000000;stop-opacity:1"
         offset="0" />
      <stop
         id="stop23423"
         style="stop-color:#000000;stop-opacity:0"
         offset="1" />
    </linearGradient>
    <linearGradient
       id="linearGradient3772">
      <stop
         id="stop3774"
         style="stop-color:#b4b4b4;stop-opacity:1"
         offset="0" />
      <stop
         id="stop3776"
         style="stop-color:#969696;stop-opacity:1"
         offset="1" />
    </linearGradient>
    <linearGradient
       x1="12.2744"
       y1="32.4165"
       x2="35.391201"
       y2="14.2033"
       id="linearGradient3263"
       gradientUnits="userSpaceOnUse">
      <stop
         id="stop3265"
         style="stop-color:#dedbde;stop-opacity:1"
         offset="0" />
      <stop
         id="stop3267"
         style="stop-color:#e6e6e6;stop-opacity:1"
         offset="0.5" />
      <stop
         id="stop3269"
         style="stop-color:#d2d2d2;stop-opacity:1"
         offset="1" />
    </linearGradient>
    <linearGradient
       id="linearGradient3428">
      <stop
         id="stop3430"
         style="stop-color:#aaaaaa;stop-opacity:1"
         offset="0" />
      <stop
         id="stop3432"
         style="stop-color:#d4d4d4;stop-opacity:1"
         offset="1" />
    </linearGradient>
    <linearGradient
       id="linearGradient6036">
      <stop
         id="stop6038"
         style="stop-color:#ffffff;stop-opacity:1"
         offset="0" />
      <stop
         id="stop6040"
         style="stop-color:#ffffff;stop-opacity:0"
         offset="1" />
    </linearGradient>
    <linearGradient
       id="linearGradient3519">
      <stop
         id="stop3521"
         style="stop-color:#fcd9cd;stop-opacity:1"
         offset="0" />
      <stop
         id="stop3523"
         style="stop-color:#fcd9cd;stop-opacity:0"
         offset="1" />
    </linearGradient>
    <linearGradient
       id="linearGradient3511">
      <stop
         id="stop3513"
         style="stop-color:#ebeec7;stop-opacity:1"
         offset="0" />
      <stop
         id="stop3515"
         style="stop-color:#ebeec7;stop-opacity:0"
         offset="1" />
    </linearGradient>
    <linearGradient
       id="linearGradient3503">
      <stop
         id="stop3505"
         style="stop-color:#c4ebdd;stop-opacity:1"
         offset="0" />
      <stop
         id="stop3507"
         style="stop-color:#c4ebdd;stop-opacity:0"
         offset="1" />
    </linearGradient>
    <linearGradient
       id="linearGradient3495">
      <stop
         id="stop3497"
         style="stop-color:#c1cbe4;stop-opacity:1"
         offset="0" />
      <stop
         id="stop3499"
         style="stop-color:#c1cbe4;stop-opacity:0"
         offset="1" />
    </linearGradient>
    <linearGradient
       id="linearGradient3487">
      <stop
         id="stop3489"
         style="stop-color:#e6cde2;stop-opacity:1"
         offset="0" />
      <stop
         id="stop3491"
         style="stop-color:#e6cde2;stop-opacity:0"
         offset="1" />
    </linearGradient>
    <radialGradient
       cx="23.334524"
       cy="41.63604"
       r="22.627417"
       fx="23.334524"
       fy="41.63604"
       id="radialGradient2584"
       xlink:href="#linearGradient23419"
       gradientUnits="userSpaceOnUse"
       gradientTransform="matrix(2.6516504,0,0,0.7954211,2.1249955,72.881817)" />
    <linearGradient
       x1="10.50172"
       y1="3.6100161"
       x2="48.798885"
       y2="54.698483"
       id="linearGradient2642"
       xlink:href="#linearGradient6036"
       gradientUnits="userSpaceOnUse"
       gradientTransform="matrix(2.7528548,0,0,2.7528545,-3.0237572,-4.8213527)" />
    <linearGradient
       x1="18.775953"
       y1="4.0378027"
       x2="18.203465"
       y2="45.962208"
       id="linearGradient2651"
       xlink:href="#linearGradient6036"
       gradientUnits="userSpaceOnUse"
       gradientTransform="matrix(1.0859888,0,0,1.0859883,37.559418,36.850296)" />
    <linearGradient
       x1="21.448364"
       y1="15.5"
       x2="21.448364"
       y2="32.509201"
       id="linearGradient2654"
       xlink:href="#linearGradient3428"
       gradientUnits="userSpaceOnUse"
       gradientTransform="matrix(2.5381093,0,0,2.5381093,3.0853666,3.0853861)" />
    <linearGradient
       x1="12.2744"
       y1="32.4165"
       x2="35.391201"
       y2="14.2033"
       id="linearGradient2658"
       xlink:href="#linearGradient3263"
       gradientUnits="userSpaceOnUse"
       gradientTransform="matrix(0,3.1714559,-3.1714559,0,137.26064,-12.114951)" />
    <linearGradient
       x1="-21.915663"
       y1="3"
       x2="-21.915663"
       y2="45.032898"
       id="linearGradient2660"
       xlink:href="#linearGradient3772"
       gradientUnits="userSpaceOnUse"
       gradientTransform="matrix(2.7073165,0,0,2.7073165,135.10782,-0.9755887)" />
    <linearGradient
       x1="20.580074"
       y1="10.774516"
       x2="24.27351"
       y2="9.8622112"
       id="linearGradient2672"
       xlink:href="#linearGradient3487"
       gradientUnits="userSpaceOnUse"
       spreadMethod="reflect" />
    <linearGradient
       x1="17.494959"
       y1="11.200086"
       x2="21.047453"
       y2="9.7956104"
       id="linearGradient2674"
       xlink:href="#linearGradient3495"
       gradientUnits="userSpaceOnUse"
       spreadMethod="reflect" />
    <linearGradient
       x1="14.084608"
       y1="13.045606"
       x2="16.994024"
       y2="10.732353"
       id="linearGradient2676"
       xlink:href="#linearGradient3503"
       gradientUnits="userSpaceOnUse"
       spreadMethod="reflect" />
    <linearGradient
       x1="12.371647"
       y1="16.188046"
       x2="14.609327"
       y2="13.461712"
       id="linearGradient2678"
       xlink:href="#linearGradient3511"
       gradientUnits="userSpaceOnUse"
       spreadMethod="reflect" />
    <linearGradient
       x1="10.609375"
       y1="17.886322"
       x2="9.7297754"
       y2="20.612656"
       id="linearGradient2680"
       xlink:href="#linearGradient3519"
       gradientUnits="userSpaceOnUse"
       spreadMethod="reflect" />
    <linearGradient
       x1="20.580074"
       y1="10.774516"
       x2="24.27351"
       y2="9.8622112"
       id="linearGradient2682"
       xlink:href="#linearGradient3487"
       gradientUnits="userSpaceOnUse"
       spreadMethod="reflect" />
    <linearGradient
       x1="17.494959"
       y1="11.200086"
       x2="21.047453"
       y2="9.7956104"
       id="linearGradient2684"
       xlink:href="#linearGradient3495"
       gradientUnits="userSpaceOnUse"
       spreadMethod="reflect" />
    <linearGradient
       x1="14.084608"
       y1="13.045606"
       x2="16.994024"
       y2="10.732353"
       id="linearGradient2686"
       xlink:href="#linearGradient3503"
       gradientUnits="userSpaceOnUse"
       spreadMethod="reflect" />
    <linearGradient
       x1="12.371647"
       y1="16.188046"
       x2="14.609327"
       y2="13.461712"
       id="linearGradient2688"
       xlink:href="#linearGradient3511"
       gradientUnits="userSpaceOnUse"
       spreadMethod="reflect" />
    <linearGradient
       x1="10.609375"
       y1="17.886322"
       x2="9.7297754"
       y2="20.612656"
       id="linearGradient2690"
       xlink:href="#linearGradient3519"
       gradientUnits="userSpaceOnUse"
       spreadMethod="reflect" />
  </defs>
  <path
     d="M 124,105.99999 C 124.00309,115.94084 97.139272,124 64,124 30.860727,124 3.9969077,115.94084 3.999998,105.99999 3.9969077,96.059149 30.860727,88 64,88 c 33.139272,0 60.00309,8.059149 60,17.99999 z"
     id="path23417"
     style="opacity:0.3;fill:url(#radialGradient2584);fill-opacity:1;fill-rule:evenodd;stroke:none;stroke-width:2;marker:none;visibility:visible;display:inline;overflow:visible" />
  <path
     d="M 119.49998,64.000008 C 119.49998,33.236876 94.763115,8.5000192 63.999988,8.5000192 33.236854,8.5000192 8.5,33.236878 8.5,64.000008 8.4999946,94.763138 33.236857,119.5 63.999988,119.5 c 30.763124,-1e-5 55.499992,-24.73686 55.499992,-55.499992 z m -35.195118,0 c 0,11.176154 -8.905094,20.304874 -20.304874,20.304874 -11.623403,0 -20.304874,-9.354626 -20.304874,-20.304874 0,-11.173915 8.234215,-20.304874 20.304874,-20.304874 12.07066,0 20.304874,9.352343 20.304874,20.304874 z"
     id="path2781"
     style="fill:url(#linearGradient2658);fill-rule:nonzero;stroke:url(#linearGradient2660);stroke-width:1;stroke-miterlimit:4;stroke-opacity:1" />
  <path
     d="m 63.999988,43.000008 c -11.592,0 -21,9.408 -21,21 0,11.592001 9.408,21 21,21 11.592,0 21,-9.407999 21,-21 0,-11.592 -9.408,-21 -21,-21 z m 0,10.500001 c 5.796,0 10.5,4.703999 10.5,10.499999 0,5.796 -4.704,10.5 -10.5,10.5 -5.796,0 -10.5,-4.704 -10.5,-10.5 0,-5.796 4.704,-10.499999 10.5,-10.499999 z"
     id="path2474"
     style="opacity:0.5;fill:#ffffff;fill-opacity:1;fill-rule:nonzero;stroke:none;stroke-width:1;marker:none;visibility:visible;display:inline;overflow:visible;enable-background:accumulate" />
  <path
     d="m 63.999988,43.695134 c -11.20829,0 -20.304874,9.096584 -20.304874,20.304874 0,11.20829 9.096584,20.304874 20.304874,20.304874 11.20829,0 20.304874,-9.096584 20.304874,-20.304874 0,-11.20829 -9.096584,-20.304874 -20.304874,-20.304874 z m 0,10.152436 c 5.604145,0 10.152437,4.548293 10.152437,10.152438 0,5.604145 -4.548292,10.152436 -10.152437,10.152436 -5.604145,0 -10.152437,-4.548291 -10.152437,-10.152436 0,-5.604145 4.548292,-10.152438 10.152437,-10.152438 z"
     id="path3418"
     style="fill:none;stroke:url(#linearGradient2654);stroke-width:1;stroke-linecap:butt;stroke-linejoin:round;stroke-miterlimit:4;stroke-opacity:1;stroke-dasharray:none;stroke-dashoffset:0;marker:none;visibility:visible;display:inline;overflow:visible;enable-background:accumulate" />
  <g
     transform="matrix(2.7320403,0,0,2.7320403,-1.0900842,-1.0742573)"
     id="g3527">
    <path
       d="M 15.856928,5.7307748 20.625,16.34375 C 21.660403,15.885186 22.795334,15.625 24,15.625 c 0.03206,0 0.06178,-3.6e-4 0.09375,0 L 24.10801,4.0047512 c -2.94215,-0.070687 -5.543041,0.6572865 -8.251083,1.7260236 z"
       transform="matrix(0.9996011,0.02824295,-0.02824295,0.9996011,0.6924114,-0.6708346)"
       id="path3296"
       style="opacity:0.8;fill:url(#linearGradient2672);fill-opacity:1;fill-rule:nonzero;stroke:none" />
    <path
       d="m 12.121471,7.9060109 6.931026,9.3601041 c 0.913109,-0.669755 1.965938,-1.167064 3.142629,-1.425169 0.03132,-0.0069 0.06026,-0.01359 0.09157,-0.02009 L 19.857174,4.426276 c -2.888973,0.5613244 -5.31953,1.8556038 -7.735703,3.4797349 z"
       id="path3308"
       style="opacity:0.8;fill:url(#linearGradient2674);fill-opacity:1;fill-rule:nonzero;stroke:none" />
    <path
       d="m 8.2523933,11.646535 9.2137237,7.155818 c 0.70865,-0.883264 1.596891,-1.636119 2.666685,-2.18998 0.02847,-0.01474 0.05469,-0.02872 0.08325,-0.0431 L 14.86585,6.2506132 C 12.220599,7.5405321 10.165881,9.452393 8.2523933,11.646535 z"
       id="path3310"
       style="opacity:0.8;fill:url(#linearGradient2676);fill-opacity:1;fill-rule:nonzero;stroke:none" />
    <path
       d="m 5.6328855,16.073974 c 7.1748065,2.242248 7.8502625,7.031463 12.7767855,1.754127 L 10.499985,9.1321388 C 8.2787249,11.062747 6.9132871,13.459349 5.6328855,16.073974 z"
       id="path3312"
       style="opacity:0.8;fill:url(#linearGradient2678);fill-opacity:1;fill-rule:nonzero;stroke:none" />
    <path
       d="M 7.155289,13.193173 C 5.9722117,14.945185 5.2475768,16.829547 4.6301929,18.837116 L 15.96875,21.8125 C 16.184264,21.049497 16.486796,20.297733 16.9375,19.59375 16.95479,19.56675 16.98246,19.52673 17,19.5 L 7.155289,13.193173 z"
       id="path3314"
       style="opacity:0.8;fill:url(#linearGradient2680);fill-opacity:1;fill-rule:nonzero;stroke:none" />
  </g>
  <path
     d="M 64.000005,9.5000009 C 33.791433,9.5000009 9.5,33.791433 9.5,64.000001 9.5,94.208571 33.791433,118.5 64.000005,118.5 94.208577,118.5 118.5,94.208571 118.5,64.000001 118.5,33.791433 94.208577,9.5000009 64.000005,9.5000009 l 0,0 0,0 z"
     id="path3272"
     style="opacity:0.5;fill:none;stroke:url(#linearGradient2642);stroke-width:0.99999994;stroke-miterlimit:4;stroke-opacity:1" />
  <g
     transform="matrix(-2.7073165,0,0,-2.7073165,128.97558,128.95078)"
     id="g3297">
    <path
       d="M 15.856928,5.7307748 20.625,16.34375 C 21.660403,15.885186 22.795334,15.625 24,15.625 c 0.03206,0 0.06178,-3.6e-4 0.09375,0 L 24.10801,4.0047512 c -2.94215,-0.070687 -5.543041,0.6572865 -8.251083,1.7260236 z"
       transform="matrix(0.9996011,0.02824295,-0.02824295,0.9996011,0.6924114,-0.6708346)"
       id="path3299"
       style="opacity:0.8;fill:url(#linearGradient2682);fill-opacity:1;fill-rule:nonzero;stroke:none" />
    <path
       d="m 12.121471,7.9060109 6.931026,9.3601041 c 0.913109,-0.669755 1.965938,-1.167064 3.142629,-1.425169 0.03132,-0.0069 0.06026,-0.01359 0.09157,-0.02009 L 19.857174,4.426276 c -2.888973,0.5613244 -5.31953,1.8556038 -7.735703,3.4797349 z"
       id="path3301"
       style="opacity:0.8;fill:url(#linearGradient2684);fill-opacity:1;fill-rule:nonzero;stroke:none" />
    <path
       d="m 8.2523933,11.646535 9.2137237,7.155818 c 0.70865,-0.883264 1.596891,-1.636119 2.666685,-2.18998 0.02847,-0.01474 0.05469,-0.02872 0.08325,-0.0431 L 14.86585,6.2506132 C 12.220599,7.5405321 10.165881,9.452393 8.2523933,11.646535 z"
       id="path3303"
       style="opacity:0.8;fill:url(#linearGradient2686);fill-opacity:1;fill-rule:nonzero;stroke:none" />
    <path
       d="m 5.6328855,16.073974 c 7.1748065,2.242248 7.8502625,7.031463 12.7767855,1.754127 L 10.499985,9.1321388 C 8.2787249,11.062747 6.9132871,13.459349 5.6328855,16.073974 z"
       id="path3305"
       style="opacity:0.8;fill:url(#linearGradient2688);fill-opacity:1;fill-rule:nonzero;stroke:none" />
    <path
       d="M 7.155289,13.193173 C 5.9722117,14.945185 5.2475768,16.829547 4.6301929,18.837116 L 15.96875,21.8125 C 16.184264,21.049497 16.486796,20.297733 16.9375,19.59375 16.95479,19.56675 16.98246,19.52673 17,19.5 L 7.155289,13.193173 z"
       id="path3307"
       style="opacity:0.8;fill:url(#linearGradient2690);fill-opacity:1;fill-rule:nonzero;stroke:none" />
  </g>
  <path
     d="m 63.99999,42.500008 c -11.917147,0 -21.500003,9.582855 -21.500003,21.5 0,11.917145 9.582856,21.5 21.500003,21.5 11.917144,0 21.499999,-9.582855 21.499999,-21.5 0,-11.917145 -9.582855,-21.5 -21.499999,-21.5 l 0,0 0,0 z"
     id="path3281"
     style="opacity:0.8;fill:none;stroke:url(#linearGradient2651);stroke-width:1;stroke-miterlimit:4;stroke-opacity:1" />
</svg>

<?xml version="1.0" encoding="UTF-8" standalone="no"?>
<!-- Created with Inkscape (http://www.inkscape.org/) -->
<svg id="svg3367" xmlns="http://www.w3.org/2000/svg" height="128" width="128" version="1.0" xmlns:xlink="http://www.w3.org/1999/xlink">
 <defs id="defs3369">
  <linearGradient id="linearGradient6036">
   <stop id="stop6038" style="stop-color:#fff" offset="0"/>
   <stop id="stop6040" style="stop-color:#fff;stop-opacity:0" offset="1"/>
  </linearGradient>
  <linearGradient id="linearGradient3519">
   <stop id="stop3521" style="stop-color:#fcd9cd" offset="0"/>
   <stop id="stop3523" style="stop-color:#fcd9cd;stop-opacity:0" offset="1"/>
  </linearGradient>
  <linearGradient id="linearGradient3511">
   <stop id="stop3513" style="stop-color:#ebeec7" offset="0"/>
   <stop id="stop3515" style="stop-color:#ebeec7;stop-opacity:0" offset="1"/>
  </linearGradient>
  <linearGradient id="linearGradient3503">
   <stop id="stop3505" style="stop-color:#c4ebdd" offset="0"/>
   <stop id="stop3507" style="stop-color:#c4ebdd;stop-opacity:0" offset="1"/>
  </linearGradient>
  <linearGradient id="linearGradient3495">
   <stop id="stop3497" style="stop-color:#c1cbe4" offset="0"/>
   <stop id="stop3499" style="stop-color:#c1cbe4;stop-opacity:0" offset="1"/>
  </linearGradient>
  <linearGradient id="linearGradient3487">
   <stop id="stop3489" style="stop-color:#e6cde2" offset="0"/>
   <stop id="stop3491" style="stop-color:#e6cde2;stop-opacity:0" offset="1"/>
  </linearGradient>
  <radialGradient id="radialGradient2584" gradientUnits="userSpaceOnUse" cy="41.636" cx="23.335" gradientTransform="matrix(2.6517 0 0 .79542 2.125 72.882)" r="22.627">
   <stop id="stop23421" offset="0"/>
   <stop id="stop23423" style="stop-opacity:0" offset="1"/>
  </radialGradient>
  <linearGradient id="linearGradient2642" y2="54.698" xlink:href="#linearGradient6036" gradientUnits="userSpaceOnUse" x2="48.799" gradientTransform="matrix(2.7529 0 0 2.7529 -3.0238 -4.8214)" y1="3.61" x1="10.502"/>
  <linearGradient id="linearGradient2651" y2="45.962" xlink:href="#linearGradient6036" gradientUnits="userSpaceOnUse" x2="18.203" gradientTransform="matrix(1.086 0 0 1.086 37.559 36.85)" y1="4.0378" x1="18.776"/>
  <linearGradient id="linearGradient2654" y2="32.509" gradientUnits="userSpaceOnUse" x2="21.448" gradientTransform="matrix(2.5381 0 0 2.5381 3.0854 3.0854)" y1="15.5" x1="21.448">
   <stop id="stop3430" style="stop-color:#aaa" offset="0"/>
   <stop id="stop3432" style="stop-color:#d4d4d4" offset="1"/>
  </linearGradient>
  <linearGradient id="linearGradient2658" y2="14.203" gradientUnits="userSpaceOnUse" x2="35.391" gradientTransform="matrix(0 3.1715 -3.1715 0 137.26 -12.115)" y1="32.416" x1="12.274">
   <stop id="stop3265" style="stop-color:#dedbde" offset="0"/>
   <stop id="stop3267" style="stop-color:#e6e6e6" offset=".5"/>
   <stop id="stop3269" style="stop-color:#d2d2d2" offset="1"/>
  </linearGradient>
  <linearGradient id="linearGradient2660" y2="45.033" gradientUnits="userSpaceOnUse" x2="-21.916" gradientTransform="matrix(2.7073 0 0 2.7073 135.11 -.97559)" y1="3" x1="-21.916">
   <stop id="stop3774" style="stop-color:#b4b4b4" offset="0"/>
   <stop id="stop3776" style="stop-color:#969696" offset="1"/>
  </linearGradient>
  <linearGradient id="linearGradient2672" y2="9.8622" xlink:href="#linearGradient3487" spreadMethod="reflect" gradientUnits="userSpaceOnUse" x2="24.274" y1="10.775" x1="20.58"/>
  <linearGradient id="linearGradient2674" y2="9.7956" xlink:href="#linearGradient3495" spreadMethod="reflect" gradientUnits="userSpaceOnUse" x2="21.047" y1="11.2" x1="17.495"/>
  <linearGradient id="linearGradient2676" y2="10.732" xlink:href="#linearGradient3503" spreadMethod="reflect" gradientUnits="userSpaceOnUse" x2="16.994" y1="13.046" x1="14.085"/>
  <linearGradient id="linearGradient2678" y2="13.462" xlink:href="#linearGradient3511" spreadMethod="reflect" gradientUnits="userSpaceOnUse" x2="14.609" y1="16.188" x1="12.372"/>
  <linearGradient id="linearGradient2680" y2="20.613" xlink:href="#linearGradient3519" spreadMethod="reflect" gradientUnits="userSpaceOnUse" x2="9.7298" y1="17.886" x1="10.609"/>
 </defs>
 <path id="path23417" style="opacity:.3;fill-rule:evenodd;fill:url(#radialGradient2584)" d="m124 106c0 9.94-26.861 18-60 18s-60.003-8.06-60-18c-0.0031-9.941 26.861-18 60-18s60.003 8.0591 60 18z"/>
 <path id="path2781" style="stroke:url(#linearGradient2660);fill:url(#linearGradient2658)" d="m119.5 64c0-30.763-24.737-55.5-55.5-55.5s-55.5 24.737-55.5 55.5 24.737 55.5 55.5 55.5c30.763-0.00001 55.5-24.737 55.5-55.5zm-35.195 0c0 11.176-8.9051 20.305-20.305 20.305-11.623 0-20.305-9.3546-20.305-20.305 0-11.174 8.2342-20.305 20.305-20.305s20.305 9.3523 20.305 20.305z"/>
 <path id="path2474" style="opacity:.5;fill:#fff" d="m64 43c-11.592 0-21 9.408-21 21s9.408 21 21 21 21-9.408 21-21-9.408-21-21-21zm0 10.5c5.796 0 10.5 4.704 10.5 10.5s-4.704 10.5-10.5 10.5-10.5-4.704-10.5-10.5 4.704-10.5 10.5-10.5z"/>
 <path id="path3418" style="stroke-linejoin:round;stroke:url(#linearGradient2654);fill:none" d="m64 43.695c-11.208 0-20.305 9.0966-20.305 20.305s9.0966 20.305 20.305 20.305 20.305-9.0966 20.305-20.305-9.0966-20.305-20.305-20.305zm0 10.152c5.6041 0 10.152 4.5483 10.152 10.152 0 5.6041-4.5483 10.152-10.152 10.152-5.6041 0-10.152-4.5483-10.152-10.152 0-5.6041 4.5483-10.152 10.152-10.152z"/>
 <g id="g3527" transform="matrix(2.732 0 0 2.732 -1.0901 -1.0743)">
  <path id="path3296" style="opacity:.8;fill:url(#linearGradient2672)" d="m15.857 5.7308 4.768 10.613c1.035-0.459 2.17-0.719 3.375-0.719 0.03206 0 0.06178-0.00036 0.09375 0l0.014-11.62c-2.9422-0.070687-5.543 0.65729-8.2511 1.726z" transform="matrix(.99960 .028243 -.028243 .99960 .69241 -.67083)"/>
  <path id="path3308" style="opacity:.8;fill:url(#linearGradient2674)" d="m12.121 7.906 6.931 9.3601c0.91311-0.66976 1.9659-1.1671 3.1426-1.4252 0.03132-0.0069 0.06026-0.01359 0.09157-0.02009l-2.429-11.395c-2.889 0.56132-5.3195 1.8556-7.7357 3.4797z"/>
  <path id="path3310" style="opacity:.8;fill:url(#linearGradient2676)" d="m8.2524 11.647 9.2137 7.1558c0.70865-0.88326 1.5969-1.6361 2.6667-2.19 0.02847-0.01474 0.05469-0.02872 0.08325-0.0431l-5.35-10.319c-2.645 1.2895-4.7 3.2014-6.6136 5.396z"/>
  <path id="path3312" style="opacity:.8;fill:url(#linearGradient2678)" d="m5.6329 16.074c7.1748 2.2422 7.8503 7.0315 12.777 1.7541l-7.91-8.6959c-2.2213 1.9309-3.5867 4.3269-4.8671 6.9419z"/>
  <path id="path3314" style="opacity:.8;fill:url(#linearGradient2680)" d="m7.1553 13.193c-1.1831 1.752-1.9077 3.637-2.5251 5.644l11.339 2.975c0.215-0.763 0.518-1.514 0.969-2.218 0.017-0.027 0.044-0.067 0.062-0.094l-9.8447-6.307z"/>
 </g>
 <path id="path3272" style="opacity:.5;stroke:url(#linearGradient2642);fill:none" d="m64 9.5c-30.209 0-54.5 24.291-54.5 54.5s24.291 54.5 54.5 54.5 54.5-24.291 54.5-54.5-24.291-54.5-54.5-54.5z"/>
 <g id="g3297" transform="matrix(-2.7073 0 0 -2.7073 128.98 128.95)">
  <path id="path3299" style="opacity:.8;fill:url(#linearGradient2672)" d="m15.857 5.7308 4.768 10.613c1.035-0.459 2.17-0.719 3.375-0.719 0.03206 0 0.06178-0.00036 0.09375 0l0.014-11.62c-2.9422-0.070687-5.543 0.65729-8.2511 1.726z" transform="matrix(.99960 .028243 -.028243 .99960 .69241 -.67083)"/>
  <path id="path3301" style="opacity:.8;fill:url(#linearGradient2674)" d="m12.121 7.906 6.931 9.3601c0.91311-0.66976 1.9659-1.1671 3.1426-1.4252 0.03132-0.0069 0.06026-0.01359 0.09157-0.02009l-2.429-11.395c-2.889 0.56132-5.3195 1.8556-7.7357 3.4797z"/>
  <path id="path3303" style="opacity:.8;fill:url(#linearGradient2676)" d="m8.2524 11.647 9.2137 7.1558c0.70865-0.88326 1.5969-1.6361 2.6667-2.19 0.02847-0.01474 0.05469-0.02872 0.08325-0.0431l-5.35-10.319c-2.645 1.2895-4.7 3.2014-6.6136 5.396z"/>
  <path id="path3305" style="opacity:.8;fill:url(#linearGradient2678)" d="m5.6329 16.074c7.1748 2.2422 7.8503 7.0315 12.777 1.7541l-7.91-8.6959c-2.2213 1.9309-3.5867 4.3269-4.8671 6.9419z"/>
  <path id="path3307" style="opacity:.8;fill:url(#linearGradient2680)" d="m7.1553 13.193c-1.1831 1.752-1.9077 3.637-2.5251 5.644l11.339 2.975c0.215-0.763 0.518-1.514 0.969-2.218 0.017-0.027 0.044-0.067 0.062-0.094l-9.8447-6.307z"/>
 </g>
 <path id="path3281" style="opacity:.8;stroke:url(#linearGradient2651);fill:none" d="m64 42.5c-11.917 0-21.5 9.5829-21.5 21.5s9.5829 21.5 21.5 21.5 21.5-9.5829 21.5-21.5-9.5829-21.5-21.5-21.5z"/>
</svg>
